X: 9046
T: Da Ferry
R: reel
M: 4/4
K: Dmajor
uA|"D"vd2(dA) "D/A"d2d2|"E7"efed "A"c2A2|"G"BcdB "D/F#"ABA(uF|"Em7"G2)EE "A7"E3A|
"D"d2(dA) "D/A"d2d2|"E7"efed "A"c2A2|"G"BcdB "A7"AGFE|"D"D2d2 "D/A"d3:|
e|"D"f2fd "D/A"f2fd|"D"fgag "D#dim"fedf|"Em"e2ec "G/D"e2ec|"C#m75"efed "A7"cBAg|
"D"f2fd "D/A"f2fd|"D"fgag "D#dim"fedf|"Em7"efgf "A7"edcB|"D"A2d2 "D/A"d3:|

